Newaita-dark/apps/22/raven-reader.svg

<svg height="22" viewBox="0 0 22 22" width="22" xmlns="http://www.w3.org/2000/svg" xmlns:xlink="http://www.w3.org/1999/xlink"><linearGradient id="a"><stop offset="0" stop-opacity=".313726"/><stop offset=".222222" stop-opacity=".27451"/><stop offset="1" stop-opacity="0"/></linearGradient><radialGradient id="b" cx="450.908936" cy="189.579361" gradientTransform="matrix(.00000012 -.0537161 -.0966889 -.00000007 30.609667 43.721789)" gradientUnits="userSpaceOnUse" r="21.166656" xlink:href="#a"/><radialGradient id="c" cx="450.908936" cy="189.579361" gradientTransform="matrix(-.00000012 .0537161 .0966889 .00000007 -8.779457 -5.175144)" gradientUnits="userSpaceOnUse" r="21.166656" xlink:href="#a"/><radialGradient id="d" cx="450.908936" cy="189.579361" gradientTransform="matrix(-.00000012 -.0537161 .0966889 -.00000007 -8.779457 43.721789)" gradientUnits="userSpaceOnUse" r="21.166656" xlink:href="#a"/><radialGradient id="e" cx="450.908936" cy="189.579361" gradientTransform="matrix(.00000012 .0537161 -.0966889 .00000007 30.609666 -5.175144)" gradientUnits="userSpaceOnUse" r="21.166656" xlink:href="#a"/><linearGradient id="f" gradientTransform="matrix(.00918504 0 0 .0429729 8.569953 9.239164)" gradientUnits="userSpaceOnUse" x1="255.323059" x2="255.323044" y1="233.5" y2="254.666656"><stop offset="0" stop-opacity=".27451"/><stop offset="1" stop-opacity="0"/></linearGradient><linearGradient id="g" gradientUnits="userSpaceOnUse" x1="254" x2="254" y1="-168.666672" y2="445.166656"><stop offset="0" stop-color="#4dd0e1"/><stop offset="1" stop-color="#ffa726"/></linearGradient><linearGradient id="h" gradientUnits="userSpaceOnUse" x1="10.9151166" x2="10.9151166" y1="6.7664306552" y2="5.40204125209"><stop offset="0" stop-color="#e0e0e0"/><stop offset="1" stop-color="#eee"/></linearGradient><path d="m12.507812 19.273438h1.816407v-.910157h-1.816407zm0 0" fill="url(#b)"/><path d="m9.324219 19.273438h-1.820313v.910156h1.820313zm0 0" fill="url(#c)"/><path d="m9.324219 19.273438h-1.820313v-.910157h1.820313zm0 0" fill="url(#d)"/><path d="m12.507812 19.273438h1.816407v.910156h-1.816407zm0 0" fill="url(#e)"/><path d="m9.324219 19.046875h3.183593v1.136719h-3.183593zm0 0" fill="url(#f)"/><path d="m253.975747-168.640791c111.080301 0 201.071707 89.991407 201.071707 201.071708s-89.991406 201.071708-201.071707 201.071708c-110.989402 0-201.071708-89.991407-201.071708-201.071708s90.082306-201.071708 201.071708-201.071708zm0 0" fill="url(#g)" stroke="#333" stroke-linecap="round" stroke-width="3" transform="matrix(.0429729 0 0 .0429729 0 9.239163)"/><path d="m10.914062 19.273438c-4.785156 0-8.640624-3.855469-8.640624-8.640626 0-.027343 0-.058593 0-.085937.046874 4.75 3.882812 8.558594 8.640624 8.558594 4.761719 0 8.597657-3.808594 8.640626-8.558594v.085937c0 4.785157-3.851563 8.640626-8.640626 8.640626zm0 0" fill-opacity=".196078"/><path d="m10.914062 1.992188c-4.785156 0-8.640624 3.851562-8.640624 8.640624v.085938c.046874-4.75 3.882812-8.558594 8.640624-8.558594 4.761719 0 8.597657 3.808594 8.640626 8.558594 0-.03125 0-.058594 0-.085938 0-4.789062-3.851563-8.640624-8.640626-8.640624zm0 0" fill="#fff" fill-opacity=".392157"/><path d="m10.914062 1.925781c-4.820312 0-8.703124 3.882813-8.703124 8.707031 0 4.820313 3.882812 8.703126 8.703124 8.703126 4.824219 0 8.707032-3.882813 8.707032-8.703126 0-4.824218-3.882813-8.707031-8.707032-8.707031zm0 .128907c4.753907 0 8.578126 3.824218 8.578126 8.578124 0 4.75-3.824219 8.574219-8.578126 8.574219-4.75 0-8.574218-3.824219-8.574218-8.574219 0-4.753906 3.824218-8.578124 8.574218-8.578124zm0 0" fill="#212121"/><path d="m11.773438 4.71875c-.9375.066406-1.714844.207031-2.222657.910156-1.363281-.453125-4.09375-.453125-5.003906.910156 1.820313 0 5.054687.453126 5.003906 1.820313-1.363281 0-2.273437-.457031-3.183593.453125 1.363281 0 2.777343.457031 3.636718.910156 0 .453125.714844.664063.910156.683594.417969.058594-.910156 2.953125-1.363281 3.863281.683594-.453125.910157-.453125.910157-.453125-.457032.910156-.683594 1.820313-.457032 2.273438 1.332032 2.058594 6.367188.453125 8.1875.910156 1.820313.453125 2.273438 2.273438 2.273438 2.273438 0-4.09375-3.183594-10.003907-4.546875-11.824219-1.363281-1.820313-2.632813-2.730469-4.144531-2.730469zm0 0" fill="#424242"/><path d="m10.914062 5.628906c.253907 0 .457032.203125.457032.457032 0 .25-.203125.453124-.457032.453124-.25 0-.453124-.203124-.453124-.453124 0-.253907.203124-.457032.453124-.457032zm0 0" fill="url(#h)"/><path d="m11.773438 4.71875c-.9375.066406-1.714844.207031-2.222657.910156-1.363281-.453125-4.09375-.453125-5.003906.910156h.128906c1.015625-1.191406 3.570313-1.175781 4.875-.738281.507813-.703125 1.285157-.847656 2.222657-.910156 1.511718 0 2.78125.910156 4.144531 2.730469 1.34375 1.792968 4.457031 7.558594 4.546875 11.644531v.007813c0-4.09375-3.183594-10.003907-4.546875-11.824219-1.363281-1.820313-2.632813-2.730469-4.144531-2.730469zm-3.984376 3.527344c-.511718 0-.96875.113281-1.421874.566406.0625 0 .125 0 .1875.003906.847656-.683594 1.726562-.289062 2.996093-.289062.003907-.058594 0-.113282-.011719-.167969-.675781-.003906-1.242187-.113281-1.75-.113281zm3.199219 2.417968c-.085937.738282-1.0625 2.855469-1.4375 3.605469.042969-.027343.082031-.054687.121094-.078125.476563-.988281 1.410156-3.074218 1.316406-3.527344zm-.527343 3.324219s-.027344 0-.09375.015625c-.296876.640625-.472657 1.265625-.449219 1.714844.023437-.480469.230469-1.105469.542969-1.730469zm0 0" fill="#fff" fill-opacity=".313726"/><path d="m4.835938 6.542969c-.109376.101562-.207032.214843-.289063.335937 1.601563 0 4.292969.351563 4.886719 1.363282.039062 0 .078125.003906.117187.003906.003907-.121094-.015625-.234375-.0625-.34375-.015625 0-.035156 0-.054687 0-.558594-.953125-2.980469-1.320313-4.597656-1.359375zm1.949218 2.285156c-.140625.082031-.277344.1875-.417968.324219 1.363281 0 2.777343.457031 3.636718.910156 0 .457031.714844.667969.910156.683594.015626 0 .027344.007812.035157.011718.050781-.210937.0625-.363281.019531-.429687-.003906.027344-.011719.058594-.019531.089844-.007813-.007813-.019531-.011719-.035157-.011719-.195312-.019531-.910156-.230469-.910156-.683594-.769531-.410156-1.988281-.816406-3.21875-.894531zm3.675782 4.875s-.054688 0-.183594.050781c-.019532.042969-.035156.089844-.054688.136719-.105468.042969-.246094.113281-.433594.226563-.089843.195312-.175781.367187-.238281.496093.3125-.210937.527344-.320312.671875-.382812.070313-.175781.148438-.351563.238282-.527344zm-.535157 2.09375c-.023437.253906 0 .472656.078125.632813 1.011719 1.570312 4.179688 1.011718 6.433594.859374.140625-.117187.277344-.238281.410156-.363281-2.261718.097657-5.765625.832031-6.84375-.835937-.039062-.082032-.066406-.183594-.078125-.292969zm0 0" fill-opacity=".235294"/><path d="m1035.491721 415.021234c-82.45455 5.840531-150.823114 18.208713-195.485995 80.049625-119.902658-39.853032-360.051534-39.853032-440.10116 80.049626 160.099251 0 444.567448 39.853032 440.10116 160.099251-119.902658 0-199.952283-40.196593-280.001909 39.853032 119.902658 0 244.271604 40.196593 319.854941 80.049625 0 39.853033 62.871595 58.405307 80.049626 60.12311 36.760987 5.153409-80.049626 259.731831-119.902658 339.781457 60.123109-39.853032 80.049625-39.853032 80.049625-39.853032-40.196593 80.049625-60.123109 160.09925-40.196593 199.952283 117.154173 181.056449 560.003818 39.853032 720.103069 80.049625 160.09925 39.853033 199.952283 199.952283 199.952283 199.952283 0-360.051534-280.001909-879.858758-399.904567-1039.958009s-231.55986-240.148876-364.517822-240.148876zm0 0" fill="none" stroke="#212121" stroke-width="11.338583" transform="scale(.0113699)"/><path d="m10.914062 5.628906c-.25 0-.453124.203125-.453124.457032 0 .027343.003906.054687.007812.082031.039062-.210938.222656-.367188.445312-.367188.222657 0 .40625.15625.449219.367188.003907-.027344.007813-.054688.007813-.082031 0-.253907-.203125-.457032-.457032-.457032zm0 0" fill="#fff" fill-opacity=".784314"/><path d="m10.914062 6.710938c-.25 0-.453124-.203126-.453124-.457032 0-.027344.003906-.058594.007812-.085937.039062.210937.222656.371093.445312.371093.222657 0 .40625-.160156.449219-.371093.003907.027343.007813.058593.007813.085937 0 .253906-.203125.457032-.457032.457032zm0 0" fill-opacity=".235294"/><path d="m253.975747-84.012509c5.908526 0 10.635348 4.726822 10.635348 10.635348 0 5.817627-4.726822 10.544448-10.635348 10.544448-5.817627 0-10.544448-4.726821-10.544448-10.544448 0-5.908526 4.726821-10.635348 10.544448-10.635348zm0 0" fill="none" stroke="#212121" stroke-linecap="round" stroke-linejoin="round" stroke-width="3" transform="matrix(.0429729 0 0 .0429729 0 9.239163)"/></svg>

<?xml version="1.0" encoding="UTF-8"?>
<svg xmlns="http://www.w3.org/2000/svg" xmlns:xlink="http://www.w3.org/1999/xlink" width="22px" height="22px" viewBox="0 0 22 22" version="1.1">
<defs>
<radialGradient id="radial0" gradientUnits="userSpaceOnUse" cx="450.908936" cy="189.579361" fx="450.908936" fy="189.579361" r="21.166656" gradientTransform="matrix(0.000000119742,-0.0537161,-0.0966889,-0.0000000698078,30.609667,43.721789)">
<stop offset="0" style="stop-color:rgb(0%,0%,0%);stop-opacity:0.313726;"/>
<stop offset="0.222222" style="stop-color:rgb(0%,0%,0%);stop-opacity:0.27451;"/>
<stop offset="1" style="stop-color:rgb(0%,0%,0%);stop-opacity:0;"/>
</radialGradient>
<radialGradient id="radial1" gradientUnits="userSpaceOnUse" cx="450.908936" cy="189.579361" fx="450.908936" fy="189.579361" r="21.166656" gradientTransform="matrix(-0.000000119742,0.0537161,0.0966889,0.0000000698078,-8.779457,-5.175144)">
<stop offset="0" style="stop-color:rgb(0%,0%,0%);stop-opacity:0.313726;"/>
<stop offset="0.222222" style="stop-color:rgb(0%,0%,0%);stop-opacity:0.27451;"/>
<stop offset="1" style="stop-color:rgb(0%,0%,0%);stop-opacity:0;"/>
</radialGradient>
<radialGradient id="radial2" gradientUnits="userSpaceOnUse" cx="450.908936" cy="189.579361" fx="450.908936" fy="189.579361" r="21.166656" gradientTransform="matrix(-0.000000119742,-0.0537161,0.0966889,-0.0000000698078,-8.779457,43.721789)">
<stop offset="0" style="stop-color:rgb(0%,0%,0%);stop-opacity:0.313726;"/>
<stop offset="0.222222" style="stop-color:rgb(0%,0%,0%);stop-opacity:0.27451;"/>
<stop offset="1" style="stop-color:rgb(0%,0%,0%);stop-opacity:0;"/>
</radialGradient>
<radialGradient id="radial3" gradientUnits="userSpaceOnUse" cx="450.908936" cy="189.579361" fx="450.908936" fy="189.579361" r="21.166656" gradientTransform="matrix(0.000000119742,0.0537161,-0.0966889,0.0000000698078,30.609666,-5.175144)">
<stop offset="0" style="stop-color:rgb(0%,0%,0%);stop-opacity:0.313726;"/>
<stop offset="0.222222" style="stop-color:rgb(0%,0%,0%);stop-opacity:0.27451;"/>
<stop offset="1" style="stop-color:rgb(0%,0%,0%);stop-opacity:0;"/>
</radialGradient>
<linearGradient id="linear0" gradientUnits="userSpaceOnUse" x1="255.323059" y1="233.5" x2="255.323044" y2="254.666656" gradientTransform="matrix(0.00918504,0,0,0.0429729,8.569953,9.239164)">
<stop offset="0" style="stop-color:rgb(0%,0%,0%);stop-opacity:0.27451;"/>
<stop offset="1" style="stop-color:rgb(0%,0%,0%);stop-opacity:0;"/>
</linearGradient>
<linearGradient id="linear1" gradientUnits="userSpaceOnUse" x1="254" y1="-168.666672" x2="254" y2="445.166656" >
<stop offset="0" style="stop-color:rgb(30.19608%,81.568629%,88.235295%);stop-opacity:1;"/>
<stop offset="1" style="stop-color:rgb(100%,65.490198%,14.901961%);stop-opacity:1;"/>
</linearGradient>
<linearGradient id="linear2" gradientUnits="userSpaceOnUse" x1="254" y1="-57.541668" x2="254" y2="-89.291664" gradientTransform="matrix(0.0429729,0,0,0.0429729,0,9.239163)">
<stop offset="0" style="stop-color:rgb(87.843138%,87.843138%,87.843138%);stop-opacity:1;"/>
<stop offset="1" style="stop-color:rgb(93.333334%,93.333334%,93.333334%);stop-opacity:1;"/>
</linearGradient>
</defs>
<g id="surface1">
<path style=" stroke:none;fill-rule:nonzero;fill:url(#radial0);" d="M 12.507812 19.273438 L 14.324219 19.273438 L 14.324219 18.363281 L 12.507812 18.363281 Z M 12.507812 19.273438 "/>
<path style=" stroke:none;fill-rule:nonzero;fill:url(#radial1);" d="M 9.324219 19.273438 L 7.503906 19.273438 L 7.503906 20.183594 L 9.324219 20.183594 Z M 9.324219 19.273438 "/>
<path style=" stroke:none;fill-rule:nonzero;fill:url(#radial2);" d="M 9.324219 19.273438 L 7.503906 19.273438 L 7.503906 18.363281 L 9.324219 18.363281 Z M 9.324219 19.273438 "/>
<path style=" stroke:none;fill-rule:nonzero;fill:url(#radial3);" d="M 12.507812 19.273438 L 14.324219 19.273438 L 14.324219 20.183594 L 12.507812 20.183594 Z M 12.507812 19.273438 "/>
<path style=" stroke:none;fill-rule:nonzero;fill:url(#linear0);" d="M 9.324219 19.046875 L 12.507812 19.046875 L 12.507812 20.183594 L 9.324219 20.183594 Z M 9.324219 19.046875 "/>
<path style="fill-rule:nonzero;fill:url(#linear1);stroke-width:3;stroke-linecap:round;stroke-linejoin:miter;stroke:rgb(20%,20%,20%);stroke-opacity:1;stroke-miterlimit:4;" d="M 253.975747 -168.640791 C 365.056048 -168.640791 455.047454 -78.649384 455.047454 32.430917 C 455.047454 143.511218 365.056048 233.502625 253.975747 233.502625 C 142.986345 233.502625 52.904039 143.511218 52.904039 32.430917 C 52.904039 -78.649384 142.986345 -168.640791 253.975747 -168.640791 Z M 253.975747 -168.640791 " transform="matrix(0.0429729,0,0,0.0429729,0,9.239163)"/>
<path style=" stroke:none;fill-rule:nonzero;fill:rgb(0%,0%,0%);fill-opacity:0.196078;" d="M 10.914062 19.273438 C 6.128906 19.273438 2.273438 15.417969 2.273438 10.632812 C 2.273438 10.605469 2.273438 10.574219 2.273438 10.546875 C 2.320312 15.296875 6.15625 19.105469 10.914062 19.105469 C 15.675781 19.105469 19.511719 15.296875 19.554688 10.546875 C 19.554688 10.574219 19.554688 10.605469 19.554688 10.632812 C 19.554688 15.417969 15.703125 19.273438 10.914062 19.273438 Z M 10.914062 19.273438 "/>
<path style=" stroke:none;fill-rule:nonzero;fill:rgb(100%,100%,100%);fill-opacity:0.392157;" d="M 10.914062 1.992188 C 6.128906 1.992188 2.273438 5.84375 2.273438 10.632812 C 2.273438 10.660156 2.273438 10.6875 2.273438 10.71875 C 2.320312 5.96875 6.15625 2.160156 10.914062 2.160156 C 15.675781 2.160156 19.511719 5.96875 19.554688 10.71875 C 19.554688 10.6875 19.554688 10.660156 19.554688 10.632812 C 19.554688 5.84375 15.703125 1.992188 10.914062 1.992188 Z M 10.914062 1.992188 "/>
<path style=" stroke:none;fill-rule:nonzero;fill:rgb(12.941177%,12.941177%,12.941177%);fill-opacity:1;" d="M 10.914062 1.925781 C 6.09375 1.925781 2.210938 5.808594 2.210938 10.632812 C 2.210938 15.453125 6.09375 19.335938 10.914062 19.335938 C 15.738281 19.335938 19.621094 15.453125 19.621094 10.632812 C 19.621094 5.808594 15.738281 1.925781 10.914062 1.925781 Z M 10.914062 2.054688 C 15.667969 2.054688 19.492188 5.878906 19.492188 10.632812 C 19.492188 15.382812 15.667969 19.207031 10.914062 19.207031 C 6.164062 19.207031 2.339844 15.382812 2.339844 10.632812 C 2.339844 5.878906 6.164062 2.054688 10.914062 2.054688 Z M 10.914062 2.054688 "/>
<path style=" stroke:none;fill-rule:nonzero;fill:rgb(25.882354%,25.882354%,25.882354%);fill-opacity:1;" d="M 11.773438 4.71875 C 10.835938 4.785156 10.058594 4.925781 9.550781 5.628906 C 8.1875 5.175781 5.457031 5.175781 4.546875 6.539062 C 6.367188 6.539062 9.601562 6.992188 9.550781 8.359375 C 8.1875 8.359375 7.277344 7.902344 6.367188 8.8125 C 7.730469 8.8125 9.144531 9.269531 10.003906 9.722656 C 10.003906 10.175781 10.71875 10.386719 10.914062 10.40625 C 11.332031 10.464844 10.003906 13.359375 9.550781 14.269531 C 10.234375 13.816406 10.460938 13.816406 10.460938 13.816406 C 10.003906 14.726562 9.777344 15.636719 10.003906 16.089844 C 11.335938 18.148438 16.371094 16.542969 18.191406 17 C 20.011719 17.453125 20.464844 19.273438 20.464844 19.273438 C 20.464844 15.179688 17.28125 9.269531 15.917969 7.449219 C 14.554688 5.628906 13.285156 4.71875 11.773438 4.71875 Z M 11.773438 4.71875 "/>
<path style=" stroke:none;fill-rule:nonzero;fill:url(#linear2);" d="M 10.914062 5.628906 C 11.167969 5.628906 11.371094 5.832031 11.371094 6.085938 C 11.371094 6.335938 11.167969 6.539062 10.914062 6.539062 C 10.664062 6.539062 10.460938 6.335938 10.460938 6.085938 C 10.460938 5.832031 10.664062 5.628906 10.914062 5.628906 Z M 10.914062 5.628906 "/>
<path style=" stroke:none;fill-rule:nonzero;fill:rgb(100%,100%,100%);fill-opacity:0.313726;" d="M 11.773438 4.71875 C 10.835938 4.785156 10.058594 4.925781 9.550781 5.628906 C 8.1875 5.175781 5.457031 5.175781 4.546875 6.539062 C 4.589844 6.539062 4.632812 6.539062 4.675781 6.539062 C 5.691406 5.347656 8.246094 5.363281 9.550781 5.800781 C 10.058594 5.097656 10.835938 4.953125 11.773438 4.890625 C 13.285156 4.890625 14.554688 5.800781 15.917969 7.621094 C 17.261719 9.414062 20.375 15.179688 20.464844 19.265625 C 20.464844 19.269531 20.464844 19.273438 20.464844 19.273438 C 20.464844 15.179688 17.28125 9.269531 15.917969 7.449219 C 14.554688 5.628906 13.285156 4.71875 11.773438 4.71875 Z M 7.789062 8.246094 C 7.277344 8.246094 6.820312 8.359375 6.367188 8.8125 C 6.429688 8.8125 6.492188 8.8125 6.554688 8.816406 C 7.402344 8.132812 8.28125 8.527344 9.550781 8.527344 C 9.554688 8.46875 9.550781 8.414062 9.539062 8.359375 C 8.863281 8.355469 8.296875 8.246094 7.789062 8.246094 Z M 10.988281 10.664062 C 10.902344 11.402344 9.925781 13.519531 9.550781 14.269531 C 9.59375 14.242188 9.632812 14.214844 9.671875 14.191406 C 10.148438 13.203125 11.082031 11.117188 10.988281 10.664062 Z M 10.460938 13.988281 C 10.460938 13.988281 10.433594 13.988281 10.367188 14.003906 C 10.070312 14.644531 9.894531 15.269531 9.917969 15.71875 C 9.941406 15.238281 10.148438 14.613281 10.460938 13.988281 Z M 10.460938 13.988281 "/>
<path style=" stroke:none;fill-rule:nonzero;fill:rgb(0%,0%,0%);fill-opacity:0.235294;" d="M 4.835938 6.542969 C 4.726562 6.644531 4.628906 6.757812 4.546875 6.878906 C 6.148438 6.878906 8.839844 7.230469 9.433594 8.242188 C 9.472656 8.242188 9.511719 8.246094 9.550781 8.246094 C 9.554688 8.125 9.535156 8.011719 9.488281 7.902344 C 9.472656 7.902344 9.453125 7.902344 9.433594 7.902344 C 8.875 6.949219 6.453125 6.582031 4.835938 6.542969 Z M 6.785156 8.828125 C 6.644531 8.910156 6.507812 9.015625 6.367188 9.152344 C 7.730469 9.152344 9.144531 9.609375 10.003906 10.0625 C 10.003906 10.519531 10.71875 10.730469 10.914062 10.746094 C 10.929688 10.746094 10.941406 10.753906 10.949219 10.757812 C 11 10.546875 11.011719 10.394531 10.96875 10.328125 C 10.964844 10.355469 10.957031 10.386719 10.949219 10.417969 C 10.941406 10.410156 10.929688 10.40625 10.914062 10.40625 C 10.71875 10.386719 10.003906 10.175781 10.003906 9.722656 C 9.234375 9.3125 8.015625 8.90625 6.785156 8.828125 Z M 10.460938 13.703125 C 10.460938 13.703125 10.40625 13.703125 10.277344 13.753906 C 10.257812 13.796875 10.242188 13.84375 10.222656 13.890625 C 10.117188 13.933594 9.976562 14.003906 9.789062 14.117188 C 9.699219 14.3125 9.613281 14.484375 9.550781 14.613281 C 9.863281 14.402344 10.078125 14.292969 10.222656 14.230469 C 10.292969 14.054688 10.371094 13.878906 10.460938 13.703125 Z M 9.925781 15.796875 C 9.902344 16.050781 9.925781 16.269531 10.003906 16.429688 C 11.015625 18 14.183594 17.441406 16.4375 17.289062 C 16.578125 17.171875 16.714844 17.050781 16.847656 16.925781 C 14.585938 17.023438 11.082031 17.757812 10.003906 16.089844 C 9.964844 16.007812 9.9375 15.90625 9.925781 15.796875 Z M 9.925781 15.796875 "/>
<path style="fill:none;stroke-width:11.338583;stroke-linecap:butt;stroke-linejoin:miter;stroke:rgb(12.941177%,12.941177%,12.941177%);stroke-opacity:1;stroke-miterlimit:4;" d="M 1035.491721 415.021234 C 953.037171 420.861765 884.668607 433.229947 840.005726 495.070859 C 720.103068 455.217827 479.954192 455.217827 399.904566 575.120485 C 560.003817 575.120485 844.472014 614.973517 840.005726 735.219736 C 720.103068 735.219736 640.053443 695.023143 560.003817 775.072768 C 679.906475 775.072768 804.275421 815.269361 879.858758 855.122393 C 879.858758 894.975426 942.730353 913.5277 959.908384 915.245503 C 996.669371 920.398912 879.858758 1174.977334 840.005726 1255.02696 C 900.128835 1215.173928 920.055351 1215.173928 920.055351 1215.173928 C 879.858758 1295.223553 859.932242 1375.273178 879.858758 1415.126211 C 997.012931 1596.18266 1439.862576 1454.979243 1599.961827 1495.175836 C 1760.061077 1535.028869 1799.91411 1695.128119 1799.91411 1695.128119 C 1799.91411 1335.076585 1519.912201 815.269361 1400.009543 655.17011 C 1280.106885 495.070859 1168.449683 415.021234 1035.491721 415.021234 Z M 1035.491721 415.021234 " transform="matrix(0.0113699,0,0,0.0113699,0,0)"/>
<path style=" stroke:none;fill-rule:nonzero;fill:rgb(100%,100%,100%);fill-opacity:0.784314;" d="M 10.914062 5.628906 C 10.664062 5.628906 10.460938 5.832031 10.460938 6.085938 C 10.460938 6.113281 10.464844 6.140625 10.46875 6.167969 C 10.507812 5.957031 10.691406 5.800781 10.914062 5.800781 C 11.136719 5.800781 11.320312 5.957031 11.363281 6.167969 C 11.367188 6.140625 11.371094 6.113281 11.371094 6.085938 C 11.371094 5.832031 11.167969 5.628906 10.914062 5.628906 Z M 10.914062 5.628906 "/>
<path style=" stroke:none;fill-rule:nonzero;fill:rgb(0%,0%,0%);fill-opacity:0.235294;" d="M 10.914062 6.710938 C 10.664062 6.710938 10.460938 6.507812 10.460938 6.253906 C 10.460938 6.226562 10.464844 6.195312 10.46875 6.167969 C 10.507812 6.378906 10.691406 6.539062 10.914062 6.539062 C 11.136719 6.539062 11.320312 6.378906 11.363281 6.167969 C 11.367188 6.195312 11.371094 6.226562 11.371094 6.253906 C 11.371094 6.507812 11.167969 6.710938 10.914062 6.710938 Z M 10.914062 6.710938 "/>
<path style="fill:none;stroke-width:3;stroke-linecap:round;stroke-linejoin:round;stroke:rgb(12.941177%,12.941177%,12.941177%);stroke-opacity:1;stroke-miterlimit:4;" d="M 253.975747 -84.012509 C 259.884273 -84.012509 264.611095 -79.285687 264.611095 -73.377161 C 264.611095 -67.559534 259.884273 -62.832713 253.975747 -62.832713 C 248.15812 -62.832713 243.431299 -67.559534 243.431299 -73.377161 C 243.431299 -79.285687 248.15812 -84.012509 253.975747 -84.012509 Z M 253.975747 -84.012509 " transform="matrix(0.0429729,0,0,0.0429729,0,9.239163)"/>
</g>
</svg>
